src/assets/icons/setting.svg

<svg fill="none" viewBox="0 0 24 24"><path stroke="currentColor" stroke-linecap="round" stroke-linejoin="round" stroke-width="1.5" d="M18.464 12.703a.8.8 0 0 0 .115.416.9.9 0 0 0 .324.314l.11.055.022.013c.551.307.962.817 1.131 1.426.169.607.08 1.251-.242 1.792l-.183.312-.004.008c-.325.54-.855.926-1.465 1.083a2.47 2.47 0 0 1-1.79-.22l-.125-.063-.022-.011a.96.96 0 0 0-.936 0l-.355.198a.9.9 0 0 0-.331.317.8.8 0 0 0-.116.414v.143c0 .633-.262 1.234-.718 1.672a2.45 2.45 0 0 1-1.696.678h-.366a2.45 2.45 0 0 1-1.696-.678 2.32 2.32 0 0 1-.718-1.672v-.143a.75.75 0 0 0-.116-.414.9.9 0 0 0-.329-.316l-.354-.199a.99.99 0 0 0-.939 0l-.146.075a2.48 2.48 0 0 1-1.79.219 2.4 2.4 0 0 1-1.466-1.083l-.183-.305-.001-.001a2.3 2.3 0 0 1-.245-1.798 2.36 2.36 0 0 1 1.131-1.426l.114-.067a.9.9 0 0 0 .342-.323.8.8 0 0 0 .115-.416v-.406a.8.8 0 0 0-.115-.416.9.9 0 0 0-.342-.323l-.114-.067a2.36 2.36 0 0 1-1.131-1.426 2.3 2.3 0 0 1 .245-1.798l.001-.001.183-.305.132-.195a2.4 2.4 0 0 1 1.334-.888 2.47 2.47 0 0 1 1.789.219l.126.064.021.011a.96.96 0 0 0 .826.052l.11-.052.355-.198.002-.001a.9.9 0 0 0 .329-.316.8.8 0 0 0 .116-.413V6.1c0-.633.263-1.234.718-1.672a2.45 2.45 0 0 1 1.696-.678h.366c.63 0 1.241.241 1.696.678.456.438.718 1.039.718 1.672v.143c0 .144.039.287.116.414a.9.9 0 0 0 .229.251l.1.065.002.001.355.198a.97.97 0 0 0 .936 0l.147-.075a2.47 2.47 0 0 1 1.79-.219c.534.137 1.006.45 1.334.888l.131.195.183.305.001.001c.325.542.414 1.189.245 1.798a2.36 2.36 0 0 1-1.122 1.419l-.123.074-.011.005a.9.9 0 0 0-.331.318.8.8 0 0 0-.115.416z"/><circle cx="12" cy="12.5" r="3" stroke="currentColor" stroke-linecap="round" stroke-linejoin="round" stroke-width="1.5"/></svg>

<svg width="24" height="24" viewBox="0 0 24 24" fill="none" xmlns="http://www.w3.org/2000/svg">
<path d="M18.464 12.703C18.463 12.847 18.502 12.991 18.579 13.119C18.655 13.246 18.766 13.355 18.903 13.433L19.013 13.488L19.035 13.501C19.586 13.808 19.997 14.318 20.166 14.927C20.335 15.534 20.246 16.178 19.924 16.719L19.741 17.031L19.737 17.039C19.412 17.579 18.882 17.965 18.272 18.122C17.669 18.277 17.028 18.199 16.482 17.902L16.357 17.839C16.349 17.835 16.342 17.832 16.335 17.828C16.195 17.75 16.033 17.708 15.867 17.708C15.702 17.708 15.54 17.75 15.399 17.828L15.044 18.026C14.902 18.105 14.79 18.215 14.713 18.343C14.636 18.471 14.597 18.614 14.597 18.757V18.9C14.597 19.533 14.335 20.134 13.879 20.572C13.424 21.009 12.813 21.25 12.183 21.25H11.817C11.187 21.25 10.576 21.009 10.121 20.572C9.666 20.134 9.403 19.533 9.403 18.9V18.757C9.397 18.543 9.345 18.439 9.287 18.343C9.21 18.215 9.098 18.105 8.958 18.027L8.604 17.828C8.46 17.75 8.299 17.708 8.133 17.708C7.967 17.708 7.805 17.75 7.665 17.828L7.519 17.903C6.972 18.198 6.331 18.277 5.729 18.122C5.118 17.965 4.588 17.579 4.263 17.039L4.08 16.734L4.079 16.733C3.754 16.192 3.665 15.544 3.834 14.935C4.003 14.326 4.414 13.816 4.965 13.509L5.079 13.442C5.231 13.358 5.344 13.248 5.421 13.119C5.498 12.991 5.537 12.847 5.536 12.703V12.297C5.537 12.153 5.498 12.009 5.421 11.881C5.344 11.752 5.231 11.642 5.079 11.558L4.965 11.491C4.414 11.184 4.003 10.674 3.834 10.065C3.665 9.456 3.754 8.809 4.079 8.267L4.08 8.266L4.263 7.961L4.395 7.766C4.722 7.328 5.194 7.015 5.729 6.878C6.33 6.723 6.972 6.801 7.518 7.097L7.644 7.161L7.665 7.172C7.805 7.25 7.967 7.292 8.133 7.292C8.257 7.292 8.379 7.268 8.491 7.224L8.601 7.172L8.956 6.974L8.958 6.973C9.098 6.895 9.21 6.785 9.287 6.657C9.364 6.53 9.403 6.387 9.403 6.244V6.1C9.403 5.467 9.666 4.866 10.121 4.428C10.576 3.991 11.187 3.75 11.817 3.75H12.183C12.813 3.75 13.424 3.991 13.879 4.428C14.335 4.866 14.597 5.467 14.597 6.1V6.243C14.597 6.387 14.636 6.53 14.713 6.657C14.771 6.753 14.848 6.839 14.942 6.908L15.042 6.973L15.044 6.974L15.399 7.172C15.54 7.25 15.702 7.292 15.867 7.292C16.033 7.292 16.195 7.25 16.335 7.172L16.482 7.097C17.028 6.801 17.669 6.723 18.272 6.878C18.806 7.015 19.278 7.328 19.606 7.766L19.737 7.961L19.92 8.266L19.921 8.267C20.246 8.809 20.335 9.456 20.166 10.065C19.998 10.67 19.59 11.177 19.044 11.484L18.921 11.558L18.91 11.563C18.769 11.642 18.656 11.752 18.579 11.881C18.502 12.009 18.463 12.153 18.464 12.297V12.703Z" stroke="#314158" stroke-width="1.5" stroke-linecap="round" stroke-linejoin="round"/>
<circle cx="12" cy="12.5" r="3" stroke="#314158" stroke-width="1.5" stroke-linecap="round" stroke-linejoin="round"/>
</svg>
